lib/brands/icons/sourcetree.svg

<svg xmlns="http://www.w3.org/2000/svg" fill="none" aria-hidden="true" viewBox="0 0 48 48"><g id="sourcetree-Icon"><g id="Group"><path id="Vector" fill="#2684FF" d="M39.8572 19.8596C39.8572 11.1007 32.7567 4.00014 23.9978 4.00014C16.1912 3.98913 9.53845 9.66273 8.31685 17.3731C7.09525 25.0835 11.6684 32.5357 19.0961 34.9384V42.8848C19.0961 43.5008 19.5954 44.0001 20.2114 44.0001H27.7396C28.3555 44.0001 28.8549 43.5008 28.8549 42.8848V34.9439C35.4059 32.8345 39.8498 26.7419 39.8572 19.8596ZM23.9978 25.2186C21.0366 25.2186 18.636 22.818 18.636 19.8568C18.636 16.8956 21.0366 14.495 23.9978 14.495C26.959 14.495 29.3596 16.8956 29.3596 19.8568C29.3596 22.818 26.959 25.2186 23.9978 25.2186Z"/><path id="Vector_2" fill="url(#paint0_linear_94_18533)" d="M23.9976 4.00001V14.5005C26.9588 14.5005 29.3593 16.9011 29.3593 19.8623C29.3593 22.8235 26.9588 25.224 23.9976 25.224C25.2976 25.224 26.5443 25.7405 27.4636 26.6597C28.3828 27.579 28.8993 28.8257 28.8993 30.1258V34.9494C36.3297 32.5463 40.9049 25.0918 39.6833 17.3786C38.4617 9.66542 31.8069 3.98946 23.9976 4.00001Z"/></g></g><defs><linearGradient id="paint0_linear_94_18533" x1="31.9273" x2="31.9273" y1="32.0775" y2="15.231" gradientUnits="userSpaceOnUse"><stop offset="0.18" stop-color="#0052CC"/><stop offset="1" stop-color="#2684FF"/></linearGradient></defs></svg>

<svg xmlns="http://www.w3.org/2000/svg" fill="none" aria-hidden="true" viewBox="0 0 48 48"><path fill="#2684FF" d="M39.857 19.86c0-8.76-7.1-15.86-15.86-15.86a15.854 15.854 0 0 0-4.901 30.938v7.947c0 .616.5 1.115 1.115 1.115h7.529c.615 0 1.115-.5 1.115-1.115v-7.941A15.865 15.865 0 0 0 39.857 19.86Zm-15.86 5.359a5.362 5.362 0 1 1 0-10.724 5.362 5.362 0 0 1 0 10.724Z"/><path fill="url(#a)" d="M23.998 4v10.5a5.362 5.362 0 0 1 0 10.724 4.902 4.902 0 0 1 4.901 4.902v4.823A15.86 15.86 0 0 0 23.998 4Z"/><defs><linearGradient id="a" x1="31.927" x2="31.927" y1="32.078" y2="15.231" gradientUnits="userSpaceOnUse"><stop offset=".18" stop-color="#0052CC"/><stop offset="1" stop-color="#2684FF"/></linearGradient></defs></svg>
